packages/dnb-ui-lib/assets/icons/check.svg

<svg width="16" height="16" viewBox="0 0 16 16" fill="none" xmlns="http://www.w3.org/2000/svg">
<path d="M2.61309 8.7943C2.3745 8.4557 1.9066 8.37462 1.568 8.61321C1.2294 8.8518 1.14833 9.3197 1.38691 9.6583L2.61309 8.7943ZM4.45 12.7033L5.07323 12.2861L5.06825 12.2786L5.06309 12.2713L4.45 12.7033ZM6.157 12.7543L5.5686 12.2892L5.56414 12.2949L5.55979 12.3006L6.157 12.7543ZM14.5884 3.29636C14.8452 2.9714 14.79 2.49975 14.4651 2.2429C14.1401 1.98605 13.6684 2.04127 13.4116 2.36624L14.5884 3.29636ZM1.38691 9.6583L3.83691 13.1353L5.06309 12.2713L2.61309 8.7943L1.38691 9.6583ZM3.82677 13.1205C4.15013 13.6036 4.68696 13.9006 5.26797 13.9179L5.31277 12.4186C5.2162 12.4157 5.12698 12.3664 5.07323 12.2861L3.82677 13.1205ZM5.26797 13.9179C5.84899 13.9353 6.40259 13.6709 6.75421 13.208L5.55979 12.3006C5.50134 12.3775 5.40933 12.4215 5.31277 12.4186L5.26797 13.9179ZM6.7454 13.2194L14.5884 3.29636L13.4116 2.36624L5.5686 12.2892L6.7454 13.2194Z" fill="black"/>
</svg>

<svg width="16" height="16" viewBox="0 0 16 16" fill="none" xmlns="http://www.w3.org/2000/svg"><path d="M2.613 8.794a.75.75 0 10-1.226.864l1.226-.864zm1.837 3.91l.623-.418-.005-.007-.005-.008-.613.432zm1.707.05l-.588-.465-.005.006-.004.006.597.453zm8.431-9.458a.75.75 0 00-1.176-.93l1.176.93zM1.387 9.658l2.45 3.477 1.226-.864-2.45-3.477-1.226.864zm2.44 3.463c.323.483.86.78 1.441.797l.045-1.5a.299.299 0 01-.24-.132l-1.246.835zm1.441.797a1.799 1.799 0 001.486-.71l-1.194-.907a.3.3 0 01-.247.118l-.045 1.499zm1.477-.699l7.843-9.923-1.176-.93-7.843 9.923 1.176.93z" fill="#000"/></svg>
